symbols/web/local_see/materialsymbolsoutlined/local_see_wght200_48px.svg

<svg xmlns="http://www.w3.org/2000/svg" height="48" width="48"><path d="M8.75 42q-1.15 0-1.95-.8T6 39.25v-22q0-1.15.8-1.975.8-.825 1.95-.825h6.3l4-4.45h3.15q-.05.4-.1.85-.05.45-.05 1 0 1.05.15 2.125T22.75 16h-14q-.45 0-.825.375-.375.375-.375.875v22q0 .45.375.825.375.375.825.375h30.5q.45 0 .825-.375.375-.375.375-.825v-11.2q.35-.4.75-.775t.8-.875v12.85q0 1.15-.8 1.95t-1.95.8Zm15-6.2q3.05 0 5.475-2.1t2.275-5.8q-.5-.4-1.075-.925T29.3 25.85q.3.45.425 1T29.85 28q0 2.6-1.75 4.425-1.75 1.825-4.35 1.825-2.55 0-4.275-1.725Q17.75 30.8 17.75 28.25q0-2.55 1.775-4.325Q21.3 22.15 23.8 22.15q.9 0 1.7.3.8.3 1.45.85-.5-.65-1.025-1.35-.525-.7-.975-1.35-3.8-.2-6.275 1.95-2.475 2.15-2.475 5.7 0 3.2 2.175 5.375T23.75 35.8ZM36 27.25q6.1-5.5 8.25-8.825Q46.4 15.1 46.4 11.75q0-4.9-3.15-7.775T36 1.1q-4.1 0-7.25 2.875Q25.6 6.85 25.6 11.75q0 3.35 2.15 6.675Q29.9 21.75 36 27.25Zm0-2q-5.75-5.4-7.3-8.25-1.55-2.85-1.55-5.2 0-4.45 2.825-6.8Q32.8 2.65 36 2.65q3.25 0 6.05 2.325t2.8 6.825q0 2.3-1.55 5.175T36 25.25Zm-2.35-10 .9-2.9-2.4-1.95h2.9L36 7.55l.95 2.85h2.9l-2.4 1.95.95 2.9L36 13.5Zm-9.65 13Zm12-15.9Z"/></svg>

<svg xmlns="http://www.w3.org/2000/svg" height="48" width="48"><path d="M8.75 42Q7.6 42 6.8 41.2Q6 40.4 6 39.25V17.25Q6 16.1 6.8 15.275Q7.6 14.45 8.75 14.45H15.05L19.05 10H22.2Q22.15 10.4 22.1 10.85Q22.05 11.3 22.05 11.85Q22.05 12.9 22.2 13.975Q22.35 15.05 22.75 16H8.75Q8.3 16 7.925 16.375Q7.55 16.75 7.55 17.25V39.25Q7.55 39.7 7.925 40.075Q8.3 40.45 8.75 40.45H39.25Q39.7 40.45 40.075 40.075Q40.45 39.7 40.45 39.25V28.05Q40.8 27.65 41.2 27.275Q41.6 26.9 42 26.4V39.25Q42 40.4 41.2 41.2Q40.4 42 39.25 42ZM23.75 35.8Q26.8 35.8 29.225 33.7Q31.65 31.6 31.5 27.9Q31 27.5 30.425 26.975Q29.85 26.45 29.3 25.85Q29.6 26.3 29.725 26.85Q29.85 27.4 29.85 28Q29.85 30.6 28.1 32.425Q26.35 34.25 23.75 34.25Q21.2 34.25 19.475 32.525Q17.75 30.8 17.75 28.25Q17.75 25.7 19.525 23.925Q21.3 22.15 23.8 22.15Q24.7 22.15 25.5 22.45Q26.3 22.75 26.95 23.3Q26.45 22.65 25.925 21.95Q25.4 21.25 24.95 20.6Q21.15 20.4 18.675 22.55Q16.2 24.7 16.2 28.25Q16.2 31.45 18.375 33.625Q20.55 35.8 23.75 35.8ZM36 27.25Q42.1 21.75 44.25 18.425Q46.4 15.1 46.4 11.75Q46.4 6.85 43.25 3.975Q40.1 1.1 36 1.1Q31.9 1.1 28.75 3.975Q25.6 6.85 25.6 11.75Q25.6 15.1 27.75 18.425Q29.9 21.75 36 27.25ZM36 25.25Q30.25 19.85 28.7 17Q27.15 14.15 27.15 11.8Q27.15 7.35 29.975 5Q32.8 2.65 36 2.65Q39.25 2.65 42.05 4.975Q44.85 7.3 44.85 11.8Q44.85 14.1 43.3 16.975Q41.75 19.85 36 25.25ZM33.65 15.25 34.55 12.35 32.15 10.4H35.05L36 7.55L36.95 10.4H39.85L37.45 12.35L38.4 15.25L36 13.5ZM24 28.25Q24 28.25 24 28.25Q24 28.25 24 28.25Q24 28.25 24 28.25Q24 28.25 24 28.25Q24 28.25 24 28.25Q24 28.25 24 28.25Q24 28.25 24 28.25Q24 28.25 24 28.25Q24 28.25 24 28.25Q24 28.25 24 28.25ZM36 12.35Q36 12.35 36 12.35Q36 12.35 36 12.35Q36 12.35 36 12.35Q36 12.35 36 12.35Q36 12.35 36 12.35Q36 12.35 36 12.35Q36 12.35 36 12.35Q36 12.35 36 12.35Z"/></svg>
